assets/img/shuffle.svg

<svg fill="#000000" height="24" viewBox="0 0 24 24" width="24" xmlns="http://www.w3.org/2000/svg">
    <path d="M0 0h24v24H0z" fill="none"/>
    <path d="M10.59 9.17L5.41 4 4 5.41l5.17 5.17 1.42-1.41zM14.5 4l2.04 2.04L4 18.59 5.41 20 17.96 7.46 20 9.5V4h-5.5zm.33 9.41l-1.41 1.41 3.13 3.13L14.5 20H20v-5.5l-2.04 2.04-3.13-3.13z"/>
</svg>

<?xml version="1.0" encoding="UTF-8" standalone="no"?>
<svg width="62px" height="16px" viewBox="0 0 62 16" version="1.1" xmlns="http://www.w3.org/2000/svg" xmlns:xlink="http://www.w3.org/1999/xlink" xmlns:sketch="http://www.bohemiancoding.com/sketch/ns">
    <!-- Generator: Sketch 3.4.3 (16044) - http://www.bohemiancoding.com/sketch -->
    <title>shuffle + ic_stop_black_24px</title>
    <desc>Created with Sketch.</desc>
    <defs></defs>
    <g id="Page-1" stroke="none" stroke-width="1" fill="none" fill-rule="evenodd" sketch:type="MSPage">
        <g id="shuffle-+-ic_stop_black_24px" sketch:type="MSLayerGroup" transform="translate(-4.000000, -4.000000)">
            <g id="shuffle" sketch:type="MSShapeGroup">
                <path d="M0,0 L24,0 L24,24 L0,24 L0,0 Z" id="Shape"></path>
                <path d="M10.59,9.17 L5.41,4 L4,5.41 L9.17,10.58 L10.59,9.17 L10.59,9.17 Z M14.5,4 L16.54,6.04 L4,18.59 L5.41,20 L17.96,7.46 L20,9.5 L20,4 L14.5,4 L14.5,4 Z M14.83,13.41 L13.42,14.82 L16.55,17.95 L14.5,20 L20,20 L20,14.5 L17.96,16.54 L14.83,13.41 L14.83,13.41 Z" id="Shape" fill="#000000"></path>
            </g>
            <g id="ic_stop_black_24px" transform="translate(48.000000, 0.000000)" sketch:type="MSShapeGroup">
                <g id="Group">
                    <path d="M0,0 L24,0 L24,24 L0,24 L0,0 Z" id="Shape"></path>
                    <path d="M6,6 L18,6 L18,18 L6,18 L6,6 Z" id="Shape" fill="#1565C0"></path>
                </g>
            </g>
            <g id="shuffle" transform="translate(24.000000, 0.000000)" sketch:type="MSShapeGroup">
                <path d="M0,0 L24,0 L24,24 L0,24 L0,0 Z" id="Shape"></path>
                <path d="M10.59,9.17 L5.41,4 L4,5.41 L9.17,10.58 L10.59,9.17 L10.59,9.17 Z M14.5,4 L16.54,6.04 L4,18.59 L5.41,20 L17.96,7.46 L20,9.5 L20,4 L14.5,4 L14.5,4 Z M14.83,13.41 L13.42,14.82 L16.55,17.95 L14.5,20 L20,20 L20,14.5 L17.96,16.54 L14.83,13.41 L14.83,13.41 Z" id="Shape" fill="#1565C0"></path>
            </g>
        </g>
    </g>
</svg>
